dist/assets/img/mastercard.svg

<svg width="24" height="24" fill="none" xmlns="http://www.w3.org/2000/svg"><path d="M21.5 6a.5.5 0 0 1 .5.5v11a.5.5 0 0 1-.5.5h-19a.5.5 0 0 1-.5-.5v-11a.5.5 0 0 1 .5-.5h19ZM24 6a2 2 0 0 0-2-2H2a2 2 0 0 0-2 2v12a2 2 0 0 0 2 2h20a2 2 0 0 0 2-2V6Zm-6.836 5.188a3.188 3.188 0 1 1-6.375 0 3.188 3.188 0 0 1 6.375 0Zm-6.73 0c0-1.087.493-2.061 1.266-2.711a3.188 3.188 0 1 0 0 5.422 3.536 3.536 0 0 1-1.266-2.711Zm-1.722 4.791v-.531c0-.2-.127-.335-.333-.336a.325.325 0 0 0-.297.151.311.311 0 0 0-.28-.151.281.281 0 0 0-.248.126v-.104H7.37v.846h.186v-.469c0-.147.081-.225.207-.225.122 0 .184.08.184.223v.471h.186v-.469c0-.147.085-.225.207-.225.126 0 .186.08.186.223v.471h.186v-.001Zm2.752-.847h-.301v-.257h-.186v.257h-.172v.168h.172v.386c0 .197.076.313.294.313.08 0 .172-.025.23-.066l-.053-.158-.163.048c-.092 0-.122-.057-.122-.142v-.382h.301v-.167Zm1.57-.021a.25.25 0 0 0-.223.124v-.103h-.182v.846h.184v-.475c0-.14.06-.218.181-.218l.115.021.057-.174-.132-.021Zm-2.374.089a.638.638 0 0 0-.345-.089c-.214 0-.352.103-.352.271 0 .138.103.223.292.25l.087.012c.101.014.149.041.149.089 0 .066-.067.103-.193.103a.452.452 0 0 1-.282-.089l-.088.143c.101.074.228.11.367.11.244 0 .386-.115.386-.276 0-.149-.112-.227-.296-.253l-.087-.012c-.08-.011-.143-.027-.143-.083 0-.062.06-.099.161-.099.108 0 .212.041.264.073l.08-.15Zm4.933-.089a.25.25 0 0 0-.223.124v-.103h-.182v.846h.184v-.475c0-.14.06-.218.181-.218l.115.021.057-.174-.132-.021Zm-2.373.445c0 .257.179.444.452.444a.445.445 0 0 0 .305-.101l-.089-.149a.37.37 0 0 1-.221.076c-.147-.002-.255-.108-.255-.271 0-.163.108-.269.255-.271.08 0 .152.027.221.076l.089-.149a.442.442 0 0 0-.305-.101c-.273.001-.452.189-.452.446Zm1.725 0v-.423h-.184v.103a.32.32 0 0 0-.267-.124c-.237 0-.423.186-.423.444 0 .259.186.444.423.444a.32.32 0 0 0 .267-.124v.103h.184v-.423Zm-.685 0c0-.149.097-.271.257-.271.152 0 .255.117.255.271 0 .154-.103.271-.255.271-.16-.001-.257-.123-.257-.271Zm-2.222-.445c-.248 0-.421.181-.421.444 0 .269.181.444.434.444a.515.515 0 0 0 .347-.119l-.09-.136a.402.402 0 0 1-.246.089c-.119 0-.227-.055-.253-.207h.629l.004-.071c-.004-.263-.167-.444-.404-.444Zm-.004.165c.119 0 .195.074.214.205h-.439c.02-.122.094-.205.225-.205Zm4.62.28v-.763h-.184v.443a.32.32 0 0 0-.267-.124c-.237 0-.423.186-.423.444 0 .259.186.444.423.444a.32.32 0 0 0 .267-.124v.103h.184v-.423Zm-.685 0c0-.149.097-.271.257-.271.152 0 .255.117.255.271 0 .154-.103.271-.255.271-.16-.001-.257-.123-.257-.271Zm-6.219 0v-.423h-.185v.103a.32.32 0 0 0-.267-.124c-.237 0-.423.186-.423.444s.186.444.423.444a.32.32 0 0 0 .267-.124v.103h.185v-.423Zm-.686 0c0-.149.097-.271.257-.271.152 0 .255.117.255.271 0 .154-.103.271-.255.271-.159-.001-.257-.123-.257-.271Z" fill="#383838"/></svg>

<svg width="24" height="24" viewBox="0 0 24 24" fill="none" xmlns="http://www.w3.org/2000/svg">
<path d="M21.5 6C21.776 6 22 6.224 22 6.5V17.5C22 17.776 21.776 18 21.5 18H2.5C2.224 18 2 17.776 2 17.5V6.5C2 6.224 2.224 6 2.5 6H21.5ZM24 6C24 4.896 23.104 4 22 4H2C0.895 4 0 4.896 0 6V18C0 19.104 0.895 20 2 20H22C23.104 20 24 19.104 24 18V6ZM17.164 11.188C17.164 12.949 15.737 14.376 13.976 14.376C12.215 14.376 10.788 12.949 10.788 11.188C10.788 9.427 12.216 8 13.977 8C15.738 8 17.164 9.427 17.164 11.188ZM10.434 11.188C10.434 10.101 10.927 9.127 11.7 8.477C11.213 8.175 10.639 8 10.023 8C8.262 8 6.835 9.427 6.835 11.188C6.835 12.949 8.262 14.376 10.023 14.376C10.638 14.376 11.213 14.201 11.7 13.899C10.927 13.249 10.434 12.275 10.434 11.188ZM8.712 15.979V15.448C8.712 15.248 8.585 15.113 8.379 15.112C8.271 15.11 8.159 15.144 8.082 15.263C8.024 15.169 7.931 15.112 7.802 15.112C7.712 15.112 7.623 15.139 7.554 15.238V15.134H7.37V15.98H7.556V15.511C7.556 15.364 7.637 15.286 7.763 15.286C7.885 15.286 7.947 15.366 7.947 15.509V15.98H8.133V15.511C8.133 15.364 8.218 15.286 8.34 15.286C8.466 15.286 8.526 15.366 8.526 15.509V15.98H8.712V15.979ZM11.464 15.132H11.163V14.875H10.977V15.132H10.805V15.3H10.977V15.686C10.977 15.883 11.053 15.999 11.271 15.999C11.351 15.999 11.443 15.974 11.501 15.933L11.448 15.775L11.285 15.823C11.193 15.823 11.163 15.766 11.163 15.681V15.299H11.464V15.132ZM13.034 15.111C12.928 15.111 12.859 15.161 12.811 15.235V15.132H12.629V15.978H12.813V15.503C12.813 15.363 12.873 15.285 12.994 15.285L13.109 15.306L13.166 15.132L13.034 15.111ZM10.66 15.2C10.571 15.142 10.449 15.111 10.315 15.111C10.101 15.111 9.963 15.214 9.963 15.382C9.963 15.52 10.066 15.605 10.255 15.632L10.342 15.644C10.443 15.658 10.491 15.685 10.491 15.733C10.491 15.799 10.424 15.836 10.298 15.836C10.171 15.836 10.078 15.795 10.016 15.747L9.928 15.89C10.029 15.964 10.156 16 10.295 16C10.539 16 10.681 15.885 10.681 15.724C10.681 15.575 10.569 15.497 10.385 15.471L10.298 15.459C10.218 15.448 10.155 15.432 10.155 15.376C10.155 15.314 10.215 15.277 10.316 15.277C10.424 15.277 10.528 15.318 10.58 15.35L10.66 15.2ZM15.593 15.111C15.487 15.111 15.418 15.161 15.37 15.235V15.132H15.188V15.978H15.372V15.503C15.372 15.363 15.432 15.285 15.553 15.285L15.668 15.306L15.725 15.132L15.593 15.111ZM13.22 15.556C13.22 15.813 13.399 16 13.672 16C13.799 16 13.884 15.972 13.977 15.899L13.888 15.75C13.819 15.8 13.746 15.826 13.667 15.826C13.52 15.824 13.412 15.718 13.412 15.555C13.412 15.392 13.52 15.286 13.667 15.284C13.747 15.284 13.819 15.311 13.888 15.36L13.977 15.211C13.885 15.138 13.8 15.11 13.672 15.11C13.399 15.111 13.22 15.299 13.22 15.556ZM14.945 15.556V15.133H14.761V15.236C14.703 15.16 14.614 15.112 14.494 15.112C14.257 15.112 14.071 15.298 14.071 15.556C14.071 15.815 14.257 16 14.494 16C14.614 16 14.703 15.952 14.761 15.876V15.979H14.945V15.556ZM14.26 15.556C14.26 15.407 14.357 15.285 14.517 15.285C14.669 15.285 14.772 15.402 14.772 15.556C14.772 15.71 14.669 15.827 14.517 15.827C14.357 15.826 14.26 15.704 14.26 15.556ZM12.038 15.111C11.79 15.111 11.617 15.292 11.617 15.555C11.617 15.824 11.798 15.999 12.051 15.999C12.178 15.999 12.295 15.967 12.398 15.88L12.308 15.744C12.237 15.801 12.147 15.833 12.062 15.833C11.943 15.833 11.835 15.778 11.809 15.626H12.438L12.442 15.555C12.438 15.292 12.275 15.111 12.038 15.111ZM12.034 15.276C12.153 15.276 12.229 15.35 12.248 15.481H11.809C11.829 15.359 11.903 15.276 12.034 15.276ZM16.654 15.556V14.793H16.47V15.236C16.412 15.16 16.323 15.112 16.203 15.112C15.966 15.112 15.78 15.298 15.78 15.556C15.78 15.815 15.966 16 16.203 16C16.323 16 16.412 15.952 16.47 15.876V15.979H16.654V15.556ZM15.969 15.556C15.969 15.407 16.066 15.285 16.226 15.285C16.378 15.285 16.481 15.402 16.481 15.556C16.481 15.71 16.378 15.827 16.226 15.827C16.066 15.826 15.969 15.704 15.969 15.556ZM9.75 15.556V15.133H9.565V15.236C9.507 15.16 9.418 15.112 9.298 15.112C9.061 15.112 8.875 15.298 8.875 15.556C8.875 15.814 9.061 16 9.298 16C9.418 16 9.507 15.952 9.565 15.876V15.979H9.75V15.556ZM9.064 15.556C9.064 15.407 9.161 15.285 9.321 15.285C9.473 15.285 9.576 15.402 9.576 15.556C9.576 15.71 9.473 15.827 9.321 15.827C9.162 15.826 9.064 15.704 9.064 15.556Z" fill="#383838"/>
</svg>
